/* XPM */
static char * desk2_xpm[] = {
"32 32 11 1",
" 	c None",
".	c #D9D9D9",
"+	c #0A0A0A",
"@	c #FFFFFF",
"#	c #595858",
"$	c #8B8B00",
"%	c #FEE415",
"&	c #C2C2C2",
"*	c #828282",
"=	c #FF0000",
"-	c #8B2323",
"................+...............",
"...............+++..............",
"..............+@#++.............",
"..............+##++.+++.........",
"..............+@#++++##++.......",
"..............+##++..++##++.....",
".............+#@#+++...++##++...",
"............+#@##++++....++##++.",
"...........+#@#@##++++.....++#+.",
"...........+++++++++++......+#+.",
"..............$%%%+........+#+..",
"...............$++.........+#+..",
"..........................+#+...",
"..........................+#+...",
".........................+#+....",
".........................+#+....",
"........................+++++...",
".....###################+&&++**+",
".....#&&&&&&&&&&&&&&&&&&+++++**+",
"....#@&######+&&&###&&&&&*****&+",
"....#@#@@@@@@+&&#%%%######+&&&#+",
"...#@&#@#+@@+#&&#%%%%@%@%@+*&&#+",
"...#@#@@#%+@+#&#%%%%@%@%@%+*&##+",
"..#@&#@@&#%+#&&#%%%%%%%%%+*&&##+",
"..#@#@@@@&#%+&&+++++++++++*&##+.",
".#@&+++++++#%+&&**********&&##+.",
".#@&&########=+&&&&&&&&&&&&##+..",
"#@&&&&&&&&&&&--&&&&&&&&&&&&##+..",
"#@@@@@@@@@@@@@@@@@@@@@@@@@##+...",
"#&&&&&&&&&&&&&&&&&&&&&&&&&##+...",
"###########################+....",
"++++++++++++++++++++++++++++...."};
