/* XPM */
static char * maildog_xpm[] = {
"64 64 8 1",
" 	c #000000000000",
".	c #CCCCCCCCCCCC",
"X	c #999999999999",
"o	c #B2B2B2B2B2B2",
"O	c #BFBF26262626",
"+	c #BFBF94942626",
"@	c #BFBF9D9D4C4C",
"#	c #FFFFFFFFFFFF",
"                                                                ",
" .............................................................. ",
" .............................................................. ",
" .............................................................. ",
" ..............................    ............................ ",
" ...........................   XXXX   ......................... ",
" ........................   XXXXXXXXXX  ....................... ",
" .....................   XXXXXXXXXXXXXXX ...................... ",
" ..................   XXXXXXXXXXXXXXXXXXX ..................... ",
" ................  XXXXXXXXXXXXXXXXXXXXXXX .................... ",
" .............       XXXXXXXXXXXXXXXXXXXXX .................... ",
" ...........  ooooooo  XXXXXXXXXXXXXXXXXXXX ................... ",
" .......... ooooooooooo XXXXXXXXXXXXXXXXXXX ................... ",
" ......... ooooo   ooooo XXXXXXXXXXXXXXXXXXX .................. ",
" ........ ooooo     ooooo XXXXXXXXXXXXXXXXXX .................. ",
" ........ ooooo     ooooo XXXXXXXXXXXXXXXXXX .................. ",
" ....... ooooooo   ooooooo XXXXXXXXXXXXXXXXXX ................. ",
" ....... ooooooooooooooooo XXXXXXXXXXXXXXXXXX ................. ",
" ...... ooooooooooooooooooo XXXXXXXXXXXXOOOXX ................. ",
" ...... ooooooooooooooooooo XXXXXXXXXXXOOOOXX ................. ",
" ...... ooooooooooooooooooo XXXXXXXXXOOOOOOXX ................. ",
" ...... o ooo ooo ooo o ooo XXXXXXXOOXOOOOOXX ......... ....... ",
" ..... oo  o  oo o oo o oooo XXXXOOXXXOOOOOXX ........  ....... ",
" ..... oo o o o ooo o o oooo XXOOXXXXXOOOOOXX ....... . ... ... ",
" ..... oo o o o     o o oooo XXOOXXXXXOOOOOXX ...... .. .. .... ",
" ..... oo ooo o ooo o o oooo XXXXXXXXXOOOOOXX ..... ... . ..... ",
" ..... oo ooo o ooo o o    o XXXXXXXXXOOOXXXX .........  ...... ",
" ..... ooooooooooooooooooooo XXXXXXXXXOXXXXXX ......... ....... ",
" ..... ooooooooooooooooooooo XXXXXXXXXXXXXXXX ................. ",
" ..... oo                  o XXXXXXXXXXXXXXXX ................. ",
" ..... ooooooooooooooooooooo XXXXXXXXXXXXXXX  ....... ......... ",
" ..... oo                  o XXXXXXXXXXXXX    ......  ......... ",
" ..... ooooooooooooooooooooo XXXXXXXXXXX    ....... . .. ...... ",
" ..... ooooooooooooooooooooo XXXXXXXXX    ........ .. . ....... ",
" ..... ooooooooooooooooooooo XXXXXXX    .............  ........ ",
" ..... ooooooooooooooooooooo XXXXX    ............... ......... ",
" ..... ooooooooooooooooooooo XXX    ........................... ",
" ..... ooooooooooooooooooooo X    ................. ........... ",
" ..... ooooooooooooooooooooo     .................  ........... ",
" .....                        ++ ................ . . ......... ",
" .....                       +++       ............  .......... ",
" ................ @@@@@@@ ++++++ ###### ........... ........... ",
" ................ @@@@@@@ ++++++    #### ..      .............. ",
" ...............  @@@@@@@ ++++++     ###          ............. ",
" ............     @@@@@@@ ++++++     #  ##         ............ ",
" ...........    # @@@@@@@ ++++++    ## #######     ............ ",
" .........     ## @@@@@@@ ++++++ #### ######## .   ............ ",
" .......        # @@@@@@@ ++++++ #### ########   .............. ",
" ....... ####   # @@@@@@@ ++++++ ###   ########  .............. ",
" ......  #####  # @@@@@@@ ++++++ ###   #####  #   ............. ",
" .....   ##  #### @@@@@@@ ++++++        #### ##  # ............ ",
" .....    ###  ## @@@@@@@ ++++++        #  ####  # ............ ",
" ....      #### # @@@@@@@ ++++++  .    ## ###### # ............ ",
" ....      #### # @@@@@@@ ++++++ .     # #######  ............. ",
" ....      ### ## @@@@@@@ ++++++ .    ###  ###    ............. ",
" ...  ####### ### @@@@@@@ ++++++ .    ### # ##    ............. ",
" ... ## #####     @@@@@@@ ++++++ .     ##        .............. ",
" ... ##  #######  @@@@@@@ ++++++ .   ..  ....   ............... ",
" ... ##           @@@@@@@ ++++  ............................... ",
" ... ##  ........ @@@@@@@ ++  ................................. ",
" ...  ###   ..... @@@@@@@   ................................... ",
" ....  #####   ..         ..................................... ",
" ......         ............................................... ",
"                                                                "};
