/* XPM */
static char * newmaildog_xpm[] = {
"64 64 10 1",
" 	c #000000000000",
".	c #CCCCCCCCCCCC",
"X	c #999999999999",
"o	c #BFBF26262626",
"O	c #B2B2B2B2B2B2",
"+	c #FFFFFFFFFFFF",
"@	c #26264C4CBFBF",
"#	c #DCDCE5E52D2D",
"$	c #BFBF94942626",
"%	c #BFBF9D9D4C4C",
"                                                                ",
" .............................................................. ",
" .............................................................. ",
" .............................................................. ",
" .............................................................. ",
" ...........................    ............................... ",
" ........................   XXXX   ............................ ",
" .....................   XXXXXXXXXX   ......................... ",
" ..................   XXXXXXXXXXXXXXXX ........................ ",
" ................  XXXXXXXXXXXXXXXXoooX ....................... ",
" .............       XXXXXXXXXXXXoooooX ....................... ",
" ...........  OOOOOOO  XXXXXXXXoooooooXX ...................... ",
" .......... OOOOOOOOOOO XXXXXXXoooooooXX ...................... ",
" ......... OOOOO   OOOOO XXXXXXoooooooXXX ..................... ",
" ........ OOOOO     OOOOO XXXXXoooooooXXX ..................... ",
" ........ OOOOO     OOOOO XXXXXooooooXXXX ..................... ",
" ....... OOOOOOO   OOOOOOO XXXXooooXXXXXXX .................... ",
" ....... OOOOOOOOOOOOOOOOO XXXXooXXXXXXXXX .................... ",
" ...... OOOOOOOOOOOOOOOOOOO XXXoXXXXXXXXXX .................... ",
" ...... OOOOOO OOOOOOOOOOOO XXXoXXXXXXXXXX .................... ",
" ...... OOOOO + OOOOOOOOOOO XXXoXXXXXXXXXX .................... ",
" ...... O OO +++  OOO O OOO XXXoXXXXXXXXXX .................... ",
" ..... OO   ++ ++  OO O OOOO XXoXXXXXXXXXX .................... ",
" ..... OO  ++ + ++  O O OOOO XXooXXXXXXXXX                      ",
" ..... OO ++++ + ++ O O OOOO XXooXXXXXXXXX @@@@@@@#@#@###@@@@@@ ",
" ..... O ++++++ ++++  O OOOO XXXXXXXXXXXXX @@@@@@@#@#@#@@@@@@@@ ",
" .....  +++++++++++++ O    O XXXXXXXXXXXXX @@@@@@@#@#@###@@@@@@ ",
" ..... O +++++++++++++ OOOOO XXXXXXXXXXXXX  @@@@@@#@#@@@#@@@@@  ",
" ..... OO +++++++ +++++ OOOO XXXXXXXXXXXXX   @@@@@###@###@@@@   ",
" ..... OO  +++++ + +++++   O XXXXXXXXXXXXX .                  . ",
" ..... OOOO +++ + + +++++ OO XXXXXXXXXXXXX ..                .. ",
" ..... OO                  O XXXXXXXXXXXXX ....             ... ",
" ..... OOOOOOOOOOOOOOOOOOOOO XXXXXXXXXXX   ....             ... ",
" ..... OOOOOOOOOOOOOOOOOOOOO XXXXXXXXX    ...                 . ",
" ..... OOOOOOOOOOOOOOOOOOOOO XXXXXXX    ....   ++         ++    ",
" ..... OOOOOOOOOOOOOOOOOOOOO XXXXX    .....   ++ +++ + +++ ++   ",
" ..... OOOOOOOOOOOOOOOOOOOOO XXX    .......   ++ + + + + + ++   ",
" ..... OOOOOOOOOOOOOOOOOOOOO X    .........   ++ +++ + +++ ++   ",
" ..... OOOOOOOOOOOOOOOOOOOOO     ..........   +++   +++   +++   ",
" .....                        $$ ..........    +++++   +++++    ",
" .....                       $$$ ...... ...    +++       +++    ",
" ................ %%%%%%% $$$$$$ ..... + ..    ++ +++ +++ ++    ",
" ................ %%%%%%% $$$$$$ ..... + ..   . + + +++ + + .   ",
" ................ %%%%%%% $$$$$$ ..... + ..   .   ++   ++   .   ",
" ................ %%%%%%% $$$$$$ ..... + ..   .... +++++ ....   ",
" ...        ..... $%%%%%% $$$$$$ ..... + ..   .....     .....   ",
" .... + ++++ .... %%%%%%% $$$$$$ ..... + ...  ..... +++ .....   ",
" ..... +++  + ... %%%%%%% $$$$$$ ...... + ......    +++    .... ",
" .....        ... %%%%%%% $$$$$$ ....... + ....   + +++ +   ... ",
" ................ %%%%%%% $$$$$$ ........ + ..  +++++++++++  .. ",
" .......      ... %%%%%%% $$$$$$ ......... +   ++ +++ +++ ++  . ",
" ...... ++++ .... %%%%%%% $$$$$$ ..........   ++++ + + + ++++   ",
" ..... ++ + ... . %%%%%%% $$$$$$ ...........    ++ + + + ++   + ",
" .... ++ + ... +  %%%%$%% $$$$$$ ........... +++ + + + + + +++  ",
" ... ++++ ... +++ %%%%$%% $$$$$$ .......... ++++++ + + + ++++++ ",
" ..      ... +++++ %%%$%% $$$$$$ .......... ++++++ + + + ++++++ ",
" .......... +++ +++ $%$%% $$$$$$ .......... ++++++ + + + ++++++ ",
" ......... +++ +++ %%%%%% $$$$$$ ........... +++++ + + + ++++++ ",
" ........ + +  ++ %%%%%%% $$$$  ............. ++++ +   + ++++++ ",
" ....... + +++++  $%%%%%% $$  ...........       ++ +   + ++++   ",
" ........ +++++ . %%%%%%%   ............ ++++++++ ++   ++ +++++ ",
" ......... +++ ..         ............. ++++++++ +++   +++ ++++ ",
" .......... + .........................                         ",
"                                                                "};
