/* XPM */
static char * pda_xpm[] = {
"53 57 39 1",
" 	c None",
".	c #C1BCC8",
"+	c #757483",
"@	c #444949",
"#	c #5E5F6C",
"$	c #272D2C",
"%	c #383F39",
"&	c #0A0D0F",
"*	c #007C9D",
"=	c #AFABBA",
"-	c #E8E3E8",
";	c #EBE7EC",
">	c #E3E2E7",
",	c #DADADD",
"'	c #F2EBF3",
")	c #E1D9E4",
"!	c #D5D2D9",
"~	c #CBC6D3",
"{	c #9A9AA2",
"]	c #898794",
"^	c #52565F",
"/	c #585962",
"(	c #92929B",
"_	c #5F5F6B",
":	c #63626F",
"<	c #363A3D",
"[	c #F1EFF0",
"}	c #656571",
"|	c #FAF5F6",
"1	c #4C5158",
"2	c #ABB86F",
"3	c #9BAA66",
"4	c #788B55",
"5	c #515F42",
"6	c #8C9C5D",
"7	c #BBC87A",
"8	c #657850",
"9	c #C8D581",
"0	c #E2E1E1",
"                                                     ",
"                                                     ",
"                                                     ",
"         .+@@#$%#%@@%@@%%%$$$$$$$&%***$%$$@          ",
"         =-;>,'-)!!!~..~~.~==...={+##]{^/&$          ",
"         .~~~~~~..!.==..========={{++](_:<#          ",
"         .~[;',~!,!~.~~~...==.=={{{{]]+}_<@          ",
"         .~~;.'|;)!~..===={=={]]]++++++1#%@          ",
"         .~~~%@$%@@%%@234444%5644444623#1$@          ",
"         .~~~@&&&&%&$&7%8265&&263633@4.#@$@          ",
"         .~~~5$%@$@@%%488664$564888854=#@$@          ",
"         .~~.89699327362633277462777773#@$@          ",
"         .|~=59822544583388884@%423333{#@%@          ",
"         .|~.53488%8858843848577233333{#@%@          ",
"         .|~~%3446844448468664336666663#@$@          ",
"         .|~.@248397777777777222222222{#@$%          ",
"         .|~=53444444464466456484484483#@&%          ",
"         .|~~%44845@5585558@%64@@581@52#@&%          ",
"         .|~~%8686722222222222222222236#1&%          ",
"         .|~.13646463333333633633666663+1&%          ",
"         .|~.@34885%155%15%%5@@%8333366#@&%          ",
"         .|~~$6446366344666666666666666#1&%          ",
"         .|~.@3886233322333233333664663+1&%          ",
"         .|~.%6848@5@15@@@5@83666666666#@&%          ",
"         .|~~$6444484485#8815666666664{#@&%          ",
"         .|~~%6886232322272233666666646#@&%          ",
"         .[~~%3488588848888848488484446+1&%          ",
"         .[~~%4888@@@%815@%@5%88%%%564{#@&%          ",
"         .[~~$445433336666636666666664{#1&$          ",
"         .[~~%234466446446664644464444{+1&&          ",
"         .[~~%886444846484646648846444{#@&$          ",
"         .[~,$&$4588188888558858886444{#1&&          ",
"         .[~~%$@6584884488884484846364{#1&&          ",
"         .-~~@4@8488888888558888884558{#1&&          ",
"         .-~~%$5@88888888888888888@$$53#1&&          ",
"         .-~!%8&&#4888888888888888%&%@{#1&&          ",
"         .;~~%8$5888888888888888885%@5=#1&&          ",
"         .0~~%454858888888888888884484{#1&&          ",
"         .>~~%$$%888888888888888888&%8=#1&&          ",
"         .>~!%&&&58888888888888884@&&@=11&&          ",
"         .-~!$5&54@8488488448444886$&4{11&&          ",
"         ~)~.$#%@@$%@55558558888%%85@8{11&&          ",
"         .>[~-|).=]+#1%%@@%$@@@11##+++=#1&&          ",
"         .0'- |--'---!~~....======{{]+##1&&          ",
"         .;[){{!...~...=~.~={{{]]+++###11$&          ",
"         .>-@&&1!~.{=.==#&%{{]]+]#+1$&@+1%&          ",
"         =,)&&+&!.1&&]!]&&&1=#$&+{#&$1&+#%&          ",
"         =.~{$@1!=&$$&-=&&&#{&&%&]+&&]#11%&          ",
"         {==.={.=.1&$$==$&&]{$&#@###$$111@$          ",
"           ]{=.{{{.+#{{]&&&1{+$$######1###%          ",
"           +1#++]]{==]]]&&&%]+++######@@%            ",
"               +@@1###+]#$%]+####@%%$$               ",
"                   ]##1@###@$$%%@1                   ",
"                                                     ",
"                                                     ",
"                                                     ",
"                                                     "};
