/* XPM */
static char *applix[] = {
/* width height num_colors chars_per_pixel */
"    48    48      108            2",
/* colors */
".. c #040204",
".# c #348254",
".a c #1c422c",
".b c #9c9694",
".c c #cccecc",
".d c #544e4c",
".e c #14261c",
".f c #6c6a64",
".g c #b4b2b4",
".h c #44b67c",
".i c #eceaec",
".j c #342e2c",
".k c #84827c",
".l c #a4a6a4",
".m c #5c5e5c",
".n c #14120c",
".o c #2c6a44",
".p c #747674",
".q c #dcdedc",
".r c #444244",
".s c #c4c2c4",
".t c #8c8e8c",
".u c #143624",
".v c #3c3a3c",
".w c #6c6664",
".x c #9c9e9c",
".y c #d4d6d4",
".z c #24221c",
".A c #747274",
".B c #f4f6f4",
".C c #646664",
".D c #0c1a14",
".E c #4c4a44",
".F c #0c0a04",
".G c #545654",
".H c #746e6c",
".I c #bcbab4",
".J c #343634",
".K c #8c8a8c",
".L c #645e5c",
".M c #847e7c",
".N c #2c2a24",
".O c #3c9e6c",
".P c #8c8684",
".Q c #acaeac",
".R c #7c7e7c",
".S c #e4e6e4",
".T c #cccacc",
".U c #949694",
".V c #a49e9c",
".W c #64625c",
".X c #245a3c",
".Y c #d4d2cc",
".Z c #6c6e6c",
".0 c #4cd28c",
".1 c #f4f2f4",
".2 c #34322c",
".3 c #848684",
".4 c #aca6a4",
".5 c #141614",
".6 c #7c7674",
".7 c #4c4644",
".8 c #ccc6c4",
".9 c #948e8c",
"#. c #443e3c",
"## c #242624",
"#a c #fcfefc",
"#b c #1c1a1c",
"#c c #4c4e4c",
"#d c #0c0e0c",
"#e c #5c5654",
"#f c #bcbebc",
"#g c #a4a2a4",
"#h c #040604",
"#i c #348e5c",
"#j c #1c4e34",
"#k c #9c9a9c",
"#l c #545254",
"#m c #6c6a6c",
"#n c #b4b6b4",
"#o c #4cc284",
"#p c #eceeec",
"#q c #848284",
"#r c #141214",
"#s c #2c764c",
"#t c #444644",
"#u c #c4c6c4",
"#v c #2c2e2c",
"#w c #3c3e3c",
"#x c #242224",
"#y c #fcfafc",
"#z c #4c4a4c",
"#A c #0c0a0c",
"#B c #746e74",
"#C c #bcbabc",
"#D c #3c3634",
"#E c #2c2a2c",
"#F c #3caa74",
"#G c #646264",
"#H c #d4d2d4",
"#I c #343234",
"#J c #acaaac",
"#K c #7c7a7c",
"#L c #e4e2e4",
"#M c #949294",
"#N c #dcdadc",
"#O c #1c1e1c",
"#P c #5c5a5c",
/* pixels */
"................................................................................................",
"...j.j#I#D#D#D.v#.#..r.r.7.7.E#z.d.d#l.G#e#e#P.L.L.W#G.w.w.f#m.H.A.A.A.6#K#K.M.M.k#q.P.K.K.K.9..",
"...j........................................................................................#M..",
"..#I.......................................................D.u.F.....u.o.e..................#M..",
"..#D.......................................................o.0.u.....o.0.u...................b..",
"..#D.......e.o.o.e.......F.u.D.D.e.........u.e.F.u.........O.0.F....#j.o.....F.u.e...e.u.....U..",
"..#D....#j.0.h.h.0.a.....u.0#F.0.0.a.......0.h#o.0#s.......h#o.......h.h....#d#o.h.e#o#j.....b..",
"...v.....o#i...u#o.o.....o.0.X.5.0#i.....u.0#i...h#o.......0.O.......0.O.......o.0.0#s......#k..",
"..#......a#i#o.0.0.a.....##o.D...0.O....#j.0#j...O.0.....u.0.o.....u.0.o.......e.0.h.........V..",
"..#....u.0.#.D.#.0.u.....O.0...e.0.#.....o#o.u..#o.h....#j#o#j....#j#o#j.......##o.0.u.......x..",
"..#....o.0.o#j.0.0.......0.0.a#i.0.u.....O.0.o.o.0.o.....o.0.u.....o.0.u.....X#o#j.0#i.......V..",
"...r...D.O.0#i#s.O.....D#o.O#F.0.o.......h#o.##o.O......#s.O......#s.O.....e.O.u...#.O.F....#g..",
"...7...................u.0.o.............0.O.................................................4..",
"...7..................#j.O.e...........e.O#j.................................................l..",
"...7........................................................................................#J..",
"..#z...............................................................z#A......................#J..",
"...d............................................................#h.s#G.......................Q..",
"..#c............................................................#I.B.l.......................Q..",
"...d.............................................................U#a.i##.....................g..",
"..#l..........................................................#b#L#a#a#K.....................g..",
"..#e...........................................................p#a#a#a.q#b..................#n..",
"...G........................................................#h#N#a#a#a.B#P..................#n..",
"..#e........................................................#l#y#a#a#a#a#C#h................#C..",
"..#P......................................................#h.g#a#a#a#a#a#p.v................#C..",
"...L.......................................................v#a#a#a#a#a#a#a.U................#f..",
"...L.5#r#r#d#d.............5#b.5#b#d.......................l#a#a#a#a#a#a#a#L#O..............#f..",
"..#G#c.Z.Z.Z.A#l.5......#d.m.Z#m.C.C#O..................#v.1#a#a#a#a#a#a#a#a.A...............s..",
"...W..#O#l.A.R.R.Z#w.n.....G#q.R#K.A.E...................k#a#a#a#a#a#a#a#a#a#u#h.............s..",
"...w.......z#l.A.R#q.C#w#d###K#K.R.p.m#A..............#O.y#a#a#a#a#H#a#a#a#a#a#P............#u..",
"...C........#h#O.G.p#q#q.L#t.A.R#K.p.Z#E..............#G#a#a#a#a#N.v#f#a#a#a#a#k............#u..",
"...f............#h.N.m#K.R#q.R#K#K.R.A#t............#h.T#a#a#a#a.x...p#a#a#a#a.B##...........T..",
"..#m................#h##.m.p.R.R#K#K.p.m#A..........#c#a#a#a#a#y.E..#r#N#a#a#a#a.U...........T..",
"...H....................#d#E.m#K.R#K.p.6##...........l#a#a#a#a#C......#K#a#a#a#a.q#b.........c..",
"...H.........................F.G.R.R.R.p#m###h....#w#p#a#a#a#a.E......#b.S#a#a#a#a.m.........c..",
"..#B..........................#I.A.R#K.R.R.R#G#O...K#a#a#a#a#f#A.........K#a#a#a#a.s.F......#H..",
"...A..........................#d.C#K#K#K#K#K#q.A#m.S#a#a#a#a#g#t#l#t#c.r#K#a#a#a#a#y.v......#H..",
"...6............................#l.R.R#K.R.p.A.Z#f#a#a#a#a#a#a#y#a#a#a#a#a#a#a#a#a#a.l.......y..",
"...p............................#E.p.p#K#K#K#O.r#p#a#a#a#a#a#a#a#a#a#a#a#a#a#a#a#a#a#L#v.....y..",
"..#K............................#d#m#K.R#K.p#E#c#y#a#a#a#a#a#a#a#a#a#a#a#a#a#a#a#a#a#a.M....#N..",
"..#K..............................#t#K#K.R.p.G#n#a#a#a#a#a#a#a#a#a#a#a#a#a#a#a#a#a#a#a.c#d..#N..",
"...M...............................5.A.R#K#m#k#a#a#a#a.B.4.x.s.s.s.s.s.g#M#M.l#y#a#a#a#a#P...q..",
"...R..............................#A.C.R.p#m#u#a#a#a#a#n.....5#w.C.Z.Z.C#E#d...x#a#a#a#a.l...q..",
"..#q.................................J#K.A.K.B#a#a#a#a#l......#h.N#e.p#K.R.p#E#P#a#a#a#a#y.J.S..",
"..#q................................###K.C.T#a#a#a#a.T.5.............2#G.A#K.6.Z.B#a#a#a#a.K#L..",
"...P.................................F.r.3#y#a#a#a#a.A................#A.J.C.p#m.T#a#a#a#a.y.S..",
"...3................................#h.J.c#a#a#a#a.q#x....................#A#D.G#k#a#a#a#a#a.i..",
"...K.K.9.t#M.U.b.b#k.x.V#g#g.l.4#J.Q.Q.g.g.I#C#C#f.s#f.s#u#u.8.T.T.c.Y#H.y.y#N.q.q#L#L.S.i.i.i..",
"............................................................................................#d.."
};
