/* XPM */
static char * pdf_xpm[] = {
/* width height num_colors chars_per_pixel */
"16 16 6 1",
/* colors */
" 	s None	c None",
".	c #808080",
"X	c white",
"o	c #ff0000",
"O	c black",
"+	c #808000",
/* pixels */
"                ",
" ..........     ",
" .XXXXXXXXX.    ",
" .XXXooXXXXO.   ",
" .XXXoXoXXXOXO  ",
" .XXXo+o+XXOOO  ",
" .XXXoXoX+XXXO  ",
" .XX+XooXX+XXO  ",
" .X+XXoooXX+XO  ",
" .X+XXoXooooXO  ",
" .X+XooXooX+XO  ",
" .XXooooXoooXO  ",
" .XoX+oXX+XXXO  ",
" .XoXo+++XXXXO  ",
" .XooXXXXXXXXO  ",
" OOOOOOOOOOOOO  "};
